teeny/solid/rss.svg

<svg width="15" height="15" viewBox="0 0 15 15" fill="none" xmlns="http://www.w3.org/2000/svg">
<path d="M14 15C14 7.26801 7.73199 1 0 1V0C8.28427 0 15 6.71573 15 15H14Z" fill="black"/>
<path fill-rule="evenodd" clip-rule="evenodd" d="M0 13.5C0 12.6716 0.671573 12 1.5 12C2.32843 12 3 12.6716 3 13.5C3 14.3284 2.32843 15 1.5 15C0.671573 15 0 14.3284 0 13.5Z" fill="black"/>
<path d="M9 15C9 10.0294 4.97056 6 0 6V7C4.41828 7 8 10.5817 8 15H9Z" fill="black"/>
</svg>

<svg viewBox="0 0 15 15" xmlns="http://www.w3.org/2000/svg"><g><path d="M14 15C14 7.26 7.73 1 0 1V0c8.28 0 15 6.71 15 15h-1Z"/><path fill-rule="evenodd" d="M0 13.5c0-.83.67-1.5 1.5-1.5 .82 0 1.5.67 1.5 1.5 0 .82-.68 1.5-1.5 1.5 -.83 0-1.5-.68-1.5-1.5Z"/><path d="M9 15c0-4.98-4.03-9-9-9v1c4.41 0 8 3.58 8 8h1Z"/></g></svg>
